X: 770
T: Chungeng qu
%%abc-version 2.0
%%abcx-abcm2ps-target-version 5.9.1 (29 Sep 2008)
%%abc-creator hum2abc beta
%%abcx-conversion-date 2013/10/02 07:52:30
%%abc-edited-by Helmut Schaffrath
%%humdrum-veritas 223774010
%%humdrum-veritas-data 1403378571
%%continueall 1
%%barnumbers 0
L: 1/8
M: 4/4
K: F
d2d cd2d f [I:setbarnb 1]| 
A G A cd4 | 
c d c AG2F G | 
c A G FD2z2 | 
d2d cd2d f | 
A G A cd4 | 
c d c AG2F G | 
c A G FD2z2 | 
A G F G A GA2 | 
c A G FD2z2 | 
d cA2d cA2 | 
A G A c d cd2 | 
c d c AG2F G | 
c A G FD4 |]  



